papirus/32x32/apps/ubiquity-kde.svg

<svg height="32" viewBox="0 0 32 32.000001" width="32" xmlns="http://www.w3.org/2000/svg"><path d="m16 8.5a7.5 7.5 0 0 0 -7.5 7.5 7.5 7.5 0 0 0  7.5 7.5 7.5 7.5 0 0 0  7.5-7.5 7.5 7.5 0 0 0 -7.5-7.5zm0 4.5c1.6569 0 3 1.3431 3 3 0 1.6569-1.3431 3-3 3-1.6569 0-3-1.3431-3-3 0-1.6569 1.3431-3 3-3z" opacity=".3"/><path d="m16 1c-8.31 0-15 6.69-15 15 0 8.31 6.69 15 15 15 8.31 0 15-6.69 15-15 0-8.31-6.69-15-15-15zm0 9a6 6 0 0 1 6 6 6 6 0 0 1 -6 6 6 6 0 0 1 -6-6 6 6 0 0 1  6-6z" fill="#ccc"/><path d="m16 1c8.3024 0 14.986 6.69 14.986 15 0 .1259-.006.2499-.0087.375-.198-8.1346-6.8-14.625-14.977-14.625-8.1766 0-14.779 6.4904-14.978 14.625-.0025-.125-.0083-.249-.0083-.375 0-8.31 6.6839-15 14.986-15zm2.959 15.375c.01566.1241.03806.2466.03806.375 0 1.6569-1.3419 3-2.9973 3-1.6553 0-2.9973-1.3431-2.9973-3 0-.1284.0224-.2509.03806-.375.18614 1.4779 1.4321 2.625 2.9592 2.625 1.5271 0 2.7731-1.1471 2.9592-2.625z" fill="#fff" opacity=".4"/><path d="m1.0254 15.5c-.0055.168-.0254.331-.0254.5 0 8.31 6.69 15 15 15 8.31 0 15-6.69 15-15 0-.169-.02-.332-.025-.5-.265 8.074-6.834 14.5-14.975 14.5-8.1411 0-14.71-6.426-14.975-14.5z" opacity=".3"/><circle cx="22" cy="23.000025" fill="#42a1cd" r="8"/><path d="m21.983 27l-2.9828-4h2v-4h2v4h2z" fill="#fff"/><path d="m29.978516 22.423828a8 8 0 0 1 -7.978516 7.576172 8 8 0 0 1 -7.978516-7.423828 8 8 0 0 0 -.021484.423828 8 8 0 0 0  8 8 8 8 0 0 0  8-8 8 8 0 0 0 -.021484-.576172z" opacity=".3"/></svg>

<?xml version="1.0" encoding="UTF-8" standalone="no"?>
<!-- Created with Inkscape (http://www.inkscape.org/) -->

<svg
   xmlns:dc="http://purl.org/dc/elements/1.1/"
   xmlns:cc="http://creativecommons.org/ns#"
   xmlns:rdf="http://www.w3.org/1999/02/22-rdf-syntax-ns#"
   xmlns:svg="http://www.w3.org/2000/svg"
   xmlns="http://www.w3.org/2000/svg"
   xmlns:sodipodi="http://sodipodi.sourceforge.net/DTD/sodipodi-0.dtd"
   xmlns:inkscape="http://www.inkscape.org/namespaces/inkscape"
   id="svg4357"
   height="32"
   viewBox="0 0 32 32.000001"
   width="32"
   version="1.1"
   inkscape:version="0.91 r13725"
   sodipodi:docname="ubiquity-kde.svg">
  <defs
     id="defs13" />
  <sodipodi:namedview
     pagecolor="#ffffff"
     bordercolor="#666666"
     borderopacity="1"
     objecttolerance="10"
     gridtolerance="10"
     guidetolerance="10"
     inkscape:pageopacity="0"
     inkscape:pageshadow="2"
     inkscape:window-width="1600"
     inkscape:window-height="849"
     id="namedview11"
     showgrid="false"
     inkscape:zoom="7.375"
     inkscape:cx="-11.661017"
     inkscape:cy="16"
     inkscape:window-x="0"
     inkscape:window-y="0"
     inkscape:window-maximized="1"
     inkscape:current-layer="svg4357" />
  <metadata
     id="metadata4362">
    <rdf:RDF>
      <cc:Work
         rdf:about="">
        <dc:format>image/svg+xml</dc:format>
        <dc:type
           rdf:resource="http://purl.org/dc/dcmitype/StillImage" />
        <dc:title />
      </cc:Work>
    </rdf:RDF>
  </metadata>
  <path
     d="M 16,8.5 A 7.5,7.5 0 0 0 8.5,16 7.5,7.5 0 0 0 16,23.5 7.5,7.5 0 0 0 23.5,16 7.5,7.5 0 0 0 16,8.5 Z m 0,4.5 c 1.6569,0 3,1.3431 3,3 0,1.6569 -1.3431,3 -3,3 -1.6569,0 -3,-1.3431 -3,-3 0,-1.6569 1.3431,-3 3,-3 z"
     id="path4416-2"
     inkscape:connector-curvature="0"
     style="opacity:0.3" />
  <path
     style="fill:#cccccc;fill-opacity:1"
     d="M 16,1 C 7.69,1 1,7.69 1,16 1,24.31 7.69,31 16,31 24.31,31 31,24.31 31,16 31,7.69 24.31,1 16,1 Z m 0,9 a 6,6 0 0 1 6,6 6,6 0 0 1 -6,6 6,6 0 0 1 -6,-6 6,6 0 0 1 6,-6 z"
     id="rect4203-6-2"
     inkscape:connector-curvature="0" />
  <path
     d="m 16,1 c 8.3024,0 14.986,6.69 14.986,15 0,0.1259 -0.006,0.2499 -0.0087,0.375 C 30.7793,8.2404 24.1773,1.75 16.0003,1.75 7.8237,1.75 1.2213,8.2404 1.0223,16.375 1.0198,16.25 1.014,16.126 1.014,16 1.014,7.69 7.6979,1 16,1 Z m 2.959,15.375 c 0.01566,0.1241 0.03806,0.2466 0.03806,0.375 0,1.6569 -1.3419,3 -2.9973,3 -1.6553,0 -2.9973,-1.3431 -2.9973,-3 0,-0.1284 0.0224,-0.2509 0.03806,-0.375 0.18614,1.4779 1.4321,2.625 2.9592,2.625 1.5271,0 2.7731,-1.1471 2.9592,-2.625 z"
     id="path4432"
     inkscape:connector-curvature="0"
     style="opacity:0.4;fill:#ffffff" />
  <path
     d="M 1.0254,15.5 C 1.0199,15.668 1,15.831 1,16 1,24.31 7.69,31 16,31 24.31,31 31,24.31 31,16 31,15.831 30.98,15.668 30.975,15.5 30.71,23.574 24.141,30 16,30 7.8589,30 1.29,23.574 1.025,15.5 Z"
     id="path4504"
     inkscape:connector-curvature="0"
     style="opacity:0.3" />
  <circle
     r="8"
     cy="23.000025"
     cx="22"
     style="fill:#42a1cd;enable-background:new"
     id="path4058-2" />
  <path
     d="m 21.983,27 -2.9828,-4 2,0 0,-4 2,0 0,4 2,0 z"
     id="path5972"
     inkscape:connector-curvature="0"
     style="fill:#ffffff" />
  <path
     style="fill:#000000;enable-background:new;fill-opacity:1;opacity:0.3"
     d="M 29.978516 22.423828 A 8 8 0 0 1 22 30 A 8 8 0 0 1 14.021484 22.576172 A 8 8 0 0 0 14 23 A 8 8 0 0 0 22 31 A 8 8 0 0 0 30 23 A 8 8 0 0 0 29.978516 22.423828 z "
     id="circle4138" />
</svg>
